X:1
T:Merrily Kiss the Quaker's Wife
R:single jig
H:See also #54
Z:id:hn-slide-4
M:6/8
K:G
GAB D2B|c2A BGE|GAB DEG|ABA AGE|
GAB D2B|c2A BGE|GAB D2E|1 G3 G2D:|2 G3 G2A|]
BGG AGG|BGG AGE|GAB DEG|A3 AGA|
BGG AGG|BGG AGE|GAB D2E|1 G3 G2A:|2 G3 GBd|]
~g3 aga|bge dBd|~g3 gab|~a3 agf|
g2g faf|ege dBA|GAB D2E|1 G3 GBd:|2 G3 G2D|]
